public/avatar/hat/121.svg

<svg xmlns:xlink="http://www.w3.org/1999/xlink" height="92.9" width="100.7" xmlns="http://www.w3.org/2000/svg"><use height="28" transform="translate(4.85 44.5)" width="62.95" xlink:href="#a"/><defs><g id="a"><path d="M-24.6-1.65Q-22.4-4.3-18.9-5q3.5-.75 5.85.95 2.65 1.9 2.4 6.1 1.2 2.1-1.25 7.3-2.6 5.45-5.9 6.05 1.6 5.45-2.25 6.45l-3 .05q-1.5-.35-2-.95-2.05 2-4 1.8-1.75-.2-2.75-1.8t-.65-3.4q.4-1.95 2.3-2.95-5.45-2.5-2.75-6.9 1.05-1.75 2.9-2.55 1.95-.8 3.55 0-.6-3.9 1.85-6.8" fill="#41313e" fill-rule="evenodd" transform="translate(33.8 5.25)"/><path d="M-24.3-.25Q-22.6-3-19.35-3.8q3.15-.8 5.55.75 2.65 1.75 2.65 5.5.45 2.6-1.65 6.6-2.45 4.65-6.2 5.55 1.65 5.35-1.7 6.25-3.05.8-4.5-1-1.9 1.6-3.55 1.5-1.45-.05-2.15-1.25-.7-1.25-.15-2.75.6-1.65 2.5-2.75-3.05-1.25-3.8-3.3-.65-1.7.5-3.35 1.1-1.55 3.05-1.85 2.1-.3 3.8 1.2-1.2-4.4.7-7.55" fill="#c089b4" fill-rule="evenodd" transform="translate(33.8 5.25)"/><path d="M-19 14.6q.85 2.25-.2 3.8-.9 1.4-2.55 1.45-1.7.05-2.45-1.4-.85-1.7.3-4.7-2.55-.85-3.15-2.35-.5-1.3.45-2.6.95-1.2 2.5-1.45 1.65-.3 2.85.85-1.05-3.3.4-5.65 1.3-2.05 3.8-2.6 2.5-.5 4.3.75 2 1.4 1.8 4.3.05 1.9-2.45 5.35-2.8 3.8-5.6 4.25" fill="#846c93" fill-rule="evenodd" transform="translate(33.8 5.25)"/><path d="M5.25 27.3q3.1-.8 2.1-3.6-.4-1.05-1.25-1.4-1-.4-2 .45-.75 1.15-.2 1.8.5.65 1.4.3 1.1-.55.2-1.4" fill="none" stroke="#41313e" stroke-linecap="round" stroke-linejoin="round" stroke-width=".75"/><path d="M21.9-2q1.85 2.5.8 5.9 1.4-1 3.05-.45 1.6.5 2.55 1.95 2.45 3.7-2 6 1.25.75 1.4 2.25.2 1.4-.65 2.65-2.05 3.15-5.6.6-6.9 2.05-6.9-3.9-3.05.45-4.5-5Q8.7 2.85 10 1.2q-.2-3.4 2.15-5 2.1-1.45 5.1-.9 3 .55 4.65 2.7" fill="#41313e" fill-rule="evenodd" transform="translate(33.8 5.25)"/><path d="M21.1-.8q1.55 2.5.55 6.05 1.6-1.05 3.25-.75 1.55.3 2.3 1.45 1.95 3.05-2.75 5.2 3.45 1.95 1.8 4.55-1.65 2.6-4.65-.45-2.05 1.35-3.7 1-2.4-.55-2.2-5.05-2.3 1.6-4.75-2.65-2.5-4.3-.55-7 0-3 2.15-4.45 1.95-1.3 4.55-.7 2.65.6 4 2.8" fill="#c089b4" fill-rule="evenodd" transform="translate(33.8 5.25)"/><path d="M58.3 22.45q-2.5-.65-1.75-2.85.75-2.25 2.55-.75.8.85.3 1.45t-1.25.25q-1-.4-.15-1.1" fill="none" stroke="#41313e" stroke-linecap="round" stroke-linejoin="round" stroke-width=".75"/><path d="M15.5-1.45q2.5.55 3.75 2.6 1.45 2.35.4 5.65 1.2-1.15 2.75-.95 1.4.2 2.1 1.35 1.85 3-3.8 4.8.55 1.55-.25 2.65-.75 1-2 1.05-3.4.15-2.75-4.5-2.25 1.6-4.7-2.25-2.3-3.6-1.6-5.4Q9.25.7 11.2-.7q1.8-1.25 4.3-.75" fill="#846c93" fill-rule="evenodd" transform="translate(33.8 5.25)"/><path d="M10.6-2.85Q12.55-1.6 11.95.7 13.4.15 14.8 1.9q1.35 1.7-1.8 1.65Q12.7 6 11.55 4.8q-1.15-1.25-.9-3.1-3.05-.65-3.3-2-.3-1.35 1.9-.8-.55-3 1.35-1.75" fill="#64214b" fill-rule="evenodd" transform="translate(33.8 5.25)"/><path d="M10.75-1.55q1 1 .5 2.85Q12.4.9 13.9 2q1.45 1.1-1.2 1-.25 2-1.25 1.25-1-.8-.8-2.3Q8.1 1.4 8 .35q-.1-1.1 2.05-.6-.4-2.35.7-1.3" fill="#e44796" fill-rule="evenodd" transform="translate(33.8 5.25)"/><path d="M-10.75 3.45q-.55 3.05-1.7 3.2-1.2.1-.7-2.1-2.95.65-1.95-1.2.95-1.85 3.3-1.3Q-12.45.6-10.45-.9-8.6-2.35-8.55.8q2.45.25 1.05 1.55-1.4 1.3-3.25 1.1" fill="#64214b" fill-rule="evenodd" transform="translate(33.8 5.25)"/><path d="M-10.45 3.45q-.5 2.6-1.6 2.8-1.15.15-.6-2.15-2.4.4-1.3-.7 1.1-1.15 2.75-.65-.45-1.1.7-2.6 1.1-1.45 1.15 1.1 2 .2 1.2 1.3-.8 1.05-2.3.9" fill="#e44796" fill-rule="evenodd" transform="translate(33.8 5.25)"/><path d="M.55 8.7q-1.1.9-1.95.7.25-2.05 0-3.2-1.65 2.45-5.2 1.35l.7-1.6q-.7-.45-1.7 1-1.05 1.45-1.35 3.45-1.55-.15-1.95-1.45-.95 2.75-.25 7.5-3.8-3.75-2.7-8.1.9-3.65 4.8-6.75 3.55-2.8 7-3.3Q1.55-2.2 1.8.55 3.95-1.55 7.15-.5q2.95 1 5 3.95 2.15 3.1 1.65 6.2-.55 3.55-4.65 5.65 1.3-5.25-.15-8.25.25.55-2.45 1.45.3-1.4-.6-3.3-.25 2.35-4.2 2.95.5-1.65.1-2Q1.7 7.7.55 8.7" fill="#41313e" fill-rule="evenodd" transform="translate(33.8 5.25)"/><path d="M12.65 8.5q0 3.2-2.7 5.8l.8-3.5q.2-3.15-1.65-5.5-.35 1.2-2.05 2.35.7-3.05-1.85-4.6l-.25 2.3q-.5 1.2-2.45 2.1 1.05-2.25-.95-2.9Q1.7 7.1-.85 8.6q.45-1.75-.3-4.05-.75 1.15-2.2 2.05-1.55.95-2.5.65 1.1-1.2.85-2.4-1.25-.65-3.1 1.3-1.85 2-1.25 3.45-1.6-1.2-.15-4.55-2.3 2.55-2.65 5-.35 2.05.6 5.4-2.4-3.9-1.05-7.8 1.15-3.3 4.55-5.65 3.1-2.2 6-2.3Q1-.35 1.45 2.2 3.4.15 6.15.65q2.55.45 4.5 2.7 2 2.35 2 5.15" fill="#c089b4" fill-rule="evenodd" transform="translate(33.8 5.25)"/><path d="M-.7 3.15q-3.25 2.55-3 1.9 1.15-4.3-3.85-.3.6-1.2-.15-1.35-.9-.1-1.8 1.4-.35-.6.6-1.85 1-1.25 1.1-.7l-.45.95.8-.8q1.1-1.1 1.4-.8.3.3-.55 1.85l1.25-1.1q1.65-1.35 2.6-1 .8.45-.25 2.4Q-1.25 1.9-.4 1.9q.8 0-.3 1.25M10.45 4.6q2.7 7.35.25 1.7Q9.9 4.35 9 4.65l-.8.7Q6.1.85 4.2 3.5l-.55-.45q-.35-.55.85-1.1 1.85-.9 3 1.1.95 1.6 1.2 1.05.9-1.9 1.75.5m-30.6-6.65q-3.05 1.3-4.75 5.4.55-4.9 4.5-6.5 3.5-1.4 6.1.4-3.8-.2-5.85.7m-7.6 8.35q-3.1 1.2-3.7 3.6-.3 1.2-.1 1.95-1.55-2.15.4-4.15 1.8-1.9 3.4-1.4m39.9-8.55q1.9-1.7 4.45-1.2l-1.55.1q-1.75.3-2.9 1.1m10.15 7.6q.65-.6 1.9-.6 1.2 0 1.4.55-2.15-.4-3.3.05" fill="#ebcae6" fill-rule="evenodd" transform="translate(33.8 5.25)"/><path d="M1.4 2.2Q3.45-.3 5.65.6q-2.3.45-4.25 1.6m8.9 11.75q3.25-3.55.7-10.25 1.35 1.4 1.6 4.05.35 3.5-2.3 6.2m-3.25-6.3L9.1 5.3q-.4 1.4-2.05 2.35m-4.55-.2q1.5-1.4 2.25-3.1l.45-1.2q.65 3.15-2.7 4.3M-.85 8.6Q.9 6.7 1.55 4.55q.3 2.75-2.4 4.05m-5-1.35q2.15-.6 4.7-2.7-.15.7-1.85 1.9-1.85 1.35-2.85.8m-3.5 2.35q-.7-1.15.45-3.2 1.15-2.15 2.85-1.55-1 .1-2.3 1.7-1.45 1.7-1 3.05m-2.2 5.85q-1.45-1.7-.9-5.55.55-4.05 2.85-4.7l-2 2.95q-1.15 2.85.05 7.3" fill="#846c93" fill-rule="evenodd" transform="translate(33.8 5.25)"/><path d="M-10.95 2.9q-.35 0-.1-.85.25-.8.65-.5.45.35.1.75l.4-.25q.15.15-.3.5l-.75.35M11.1 1.65q1.8.05 1.3.65-.3.35-.65.1l.1.35-.45-.35-.3-.75" fill="#9f3370" fill-rule="evenodd" transform="translate(33.8 5.25)"/><path d="M-12.45 3.3q1.15-.7 1.3-.15.15.45-.9.7-.75-.25-.4-.55M10.75.2q.9 1.05.2 1.3-.45.15-.75-.9.5.15.55-.4" fill="#9f3370" fill-rule="evenodd" transform="translate(33.8 5.25)"/></g></defs></svg>

<?xml version="1.0" encoding="UTF-8" standalone="no"?>
<svg xmlns:xlink="http://www.w3.org/1999/xlink" height="92.9px" width="100.7px" xmlns="http://www.w3.org/2000/svg">
  <g transform="matrix(1.0, 0.0, 0.0, 1.0, 38.65, 49.75)">
    <use height="28.0" transform="matrix(1.0, 0.0, 0.0, 1.0, -33.8, -5.25)" width="62.95" xlink:href="#shape0"/>
  </g>
  <defs>
    <g id="shape0" transform="matrix(1.0, 0.0, 0.0, 1.0, 33.8, 5.25)">
      <path d="M-24.6 -1.65 Q-22.4 -4.3 -18.9 -5.0 -15.4 -5.75 -13.05 -4.05 -10.4 -2.15 -10.65 2.05 -9.45 4.15 -11.9 9.35 -14.5 14.8 -17.8 15.4 -16.2 20.85 -20.05 21.85 L-23.05 21.9 Q-24.55 21.55 -25.05 20.95 -27.1 22.95 -29.05 22.75 -30.8 22.55 -31.8 20.95 -32.8 19.35 -32.45 17.55 -32.05 15.6 -30.15 14.6 -35.6 12.1 -32.9 7.7 -31.85 5.95 -30.0 5.15 -28.05 4.35 -26.45 5.15 -27.05 1.25 -24.6 -1.65" fill="#41313e" fill-rule="evenodd" stroke="none"/>
      <path d="M-24.3 -0.25 Q-22.6 -3.0 -19.35 -3.8 -16.2 -4.6 -13.8 -3.05 -11.15 -1.3 -11.15 2.45 -10.7 5.05 -12.8 9.05 -15.25 13.7 -19.0 14.6 -17.35 19.95 -20.7 20.85 -23.75 21.65 -25.2 19.85 -27.1 21.45 -28.75 21.35 -30.2 21.3 -30.9 20.1 -31.6 18.85 -31.05 17.35 -30.45 15.7 -28.55 14.6 -31.6 13.35 -32.35 11.3 -33.0 9.6 -31.85 7.95 -30.75 6.4 -28.8 6.1 -26.7 5.8 -25.0 7.3 -26.2 2.9 -24.3 -0.25" fill="#c089b4" fill-rule="evenodd" stroke="none"/>
      <path d="M-19.0 14.6 Q-18.15 16.85 -19.2 18.4 -20.1 19.8 -21.75 19.85 -23.45 19.9 -24.2 18.45 -25.05 16.75 -23.9 13.75 -26.45 12.9 -27.05 11.4 -27.55 10.1 -26.6 8.8 -25.65 7.6 -24.1 7.35 -22.45 7.05 -21.25 8.2 -22.3 4.9 -20.85 2.55 -19.55 0.5 -17.05 -0.05 -14.55 -0.55 -12.75 0.7 -10.75 2.1 -10.95 5.0 -10.9 6.9 -13.4 10.35 -16.2 14.15 -19.0 14.6" fill="#846c93" fill-rule="evenodd" stroke="none"/>
      <path d="M-28.55 22.05 Q-25.45 21.25 -26.45 18.45 -26.85 17.4 -27.7 17.05 -28.7 16.65 -29.7 17.5 -30.45 18.65 -29.9 19.3 -29.4 19.95 -28.5 19.6 -27.4 19.05 -28.3 18.2" fill="none" stroke="#41313e" stroke-linecap="round" stroke-linejoin="round" stroke-width="0.75"/>
      <path d="M21.9 -2.0 Q23.75 0.5 22.7 3.9 24.1 2.9 25.75 3.45 27.35 3.95 28.3 5.4 30.75 9.1 26.3 11.4 27.55 12.15 27.7 13.65 27.9 15.05 27.05 16.3 25.0 19.45 21.45 16.9 14.55 18.95 14.55 13.0 11.5 13.45 10.05 8.0 8.7 2.85 10.0 1.2 9.8 -2.2 12.15 -3.8 14.25 -5.25 17.25 -4.7 20.25 -4.15 21.9 -2.0" fill="#41313e" fill-rule="evenodd" stroke="none"/>
      <path d="M21.1 -0.8 Q22.65 1.7 21.65 5.25 23.25 4.2 24.9 4.5 26.45 4.8 27.2 5.95 29.15 9.0 24.45 11.15 27.9 13.1 26.25 15.7 24.6 18.3 21.6 15.25 19.55 16.6 17.9 16.25 15.5 15.7 15.7 11.2 13.4 12.8 10.95 8.55 8.45 4.25 10.4 1.55 10.4 -1.45 12.55 -2.9 14.5 -4.2 17.1 -3.6 19.75 -3.0 21.1 -0.8" fill="#c089b4" fill-rule="evenodd" stroke="none"/>
      <path d="M24.5 17.2 Q22.0 16.55 22.75 14.35 23.5 12.1 25.3 13.6 26.1 14.45 25.6 15.05 25.1 15.65 24.35 15.3 23.35 14.9 24.2 14.2" fill="none" stroke="#41313e" stroke-linecap="round" stroke-linejoin="round" stroke-width="0.75"/>
      <path d="M15.5 -1.45 Q18.0 -0.9 19.25 1.15 20.7 3.5 19.65 6.8 20.85 5.65 22.4 5.85 23.8 6.05 24.5 7.2 26.35 10.2 20.7 12.0 21.25 13.55 20.45 14.65 19.7 15.65 18.45 15.7 15.05 15.85 15.7 11.2 13.45 12.8 11.0 8.95 8.7 5.35 9.4 3.55 9.25 0.7 11.2 -0.7 13.0 -1.95 15.5 -1.45" fill="#846c93" fill-rule="evenodd" stroke="none"/>
      <path d="M10.6 -2.85 Q12.55 -1.6 11.95 0.7 13.4 0.15 14.8 1.9 16.15 3.6 13.0 3.55 12.7 6.0 11.55 4.8 10.4 3.55 10.65 1.7 7.6 1.05 7.35 -0.3 7.05 -1.65 9.25 -1.1 8.7 -4.1 10.6 -2.85" fill="#64214b" fill-rule="evenodd" stroke="none"/>
      <path d="M10.75 -1.55 Q11.75 -0.55 11.25 1.3 12.4 0.9 13.9 2.0 15.35 3.1 12.7 3.0 12.45 5.0 11.45 4.25 10.45 3.45 10.65 1.95 8.1 1.4 8.0 0.35 7.9 -0.75 10.05 -0.25 9.65 -2.6 10.75 -1.55" fill="#e44796" fill-rule="evenodd" stroke="none"/>
      <path d="M-10.75 3.45 Q-11.3 6.5 -12.45 6.65 -13.65 6.75 -13.15 4.55 -16.1 5.2 -15.1 3.35 -14.15 1.5 -11.8 2.05 -12.45 0.6 -10.45 -0.9 -8.6 -2.35 -8.55 0.8 -6.1 1.05 -7.5 2.35 -8.9 3.65 -10.75 3.45" fill="#64214b" fill-rule="evenodd" stroke="none"/>
      <path d="M-10.45 3.45 Q-10.95 6.05 -12.05 6.25 -13.2 6.4 -12.65 4.1 -15.05 4.5 -13.95 3.4 -12.85 2.25 -11.2 2.75 -11.65 1.65 -10.5 0.15 -9.4 -1.3 -9.35 1.25 -7.35 1.45 -8.15 2.55 -8.95 3.6 -10.45 3.45" fill="#e44796" fill-rule="evenodd" stroke="none"/>
      <path d="M0.55 8.7 Q-0.55 9.6 -1.4 9.4 -1.15 7.35 -1.4 6.2 -3.05 8.65 -6.6 7.55 L-5.9 5.95 Q-6.6 5.5 -7.6 6.95 -8.65 8.4 -8.95 10.4 -10.5 10.25 -10.9 8.95 -11.85 11.7 -11.15 16.45 -14.95 12.7 -13.85 8.35 -12.95 4.7 -9.05 1.6 -5.5 -1.2 -2.05 -1.7 1.55 -2.2 1.8 0.55 3.95 -1.55 7.15 -0.5 10.1 0.5 12.15 3.45 14.3 6.55 13.8 9.65 13.25 13.2 9.15 15.3 10.45 10.05 9.0 7.05 9.25 7.6 6.55 8.5 6.85 7.1 5.95 5.2 5.7 7.55 1.75 8.15 2.25 6.5 1.85 6.15 1.7 7.7 0.55 8.7" fill="#41313e" fill-rule="evenodd" stroke="none"/>
      <path d="M12.65 8.5 Q12.65 11.7 9.95 14.3 L10.75 10.8 Q10.95 7.65 9.1 5.3 8.75 6.5 7.05 7.65 7.75 4.6 5.2 3.05 L4.95 5.35 Q4.45 6.55 2.5 7.45 3.55 5.2 1.55 4.55 1.7 7.1 -0.85 8.6 -0.4 6.85 -1.15 4.55 -1.9 5.7 -3.35 6.6 -4.9 7.55 -5.85 7.25 -4.75 6.05 -5.0 4.85 -6.25 4.2 -8.1 6.15 -9.95 8.15 -9.35 9.6 -10.95 8.4 -9.5 5.05 -11.8 7.6 -12.15 10.05 -12.5 12.1 -11.55 15.45 -13.95 11.55 -12.6 7.65 -11.45 4.35 -8.05 2.0 -4.95 -0.2 -2.05 -0.3 1.0 -0.35 1.45 2.2 3.4 0.15 6.15 0.65 8.7 1.1 10.65 3.35 12.65 5.7 12.65 8.5" fill="#c089b4" fill-rule="evenodd" stroke="none"/>
      <path d="M-0.7 3.15 Q-3.95 5.7 -3.7 5.05 -2.55 0.75 -7.55 4.75 -6.95 3.55 -7.7 3.4 -8.6 3.3 -9.5 4.8 -9.85 4.2 -8.9 2.95 -7.9 1.7 -7.8 2.25 L-8.25 3.2 -7.45 2.4 Q-6.35 1.3 -6.05 1.6 -5.75 1.9 -6.6 3.45 L-5.35 2.35 Q-3.7 1.0 -2.75 1.35 -1.95 1.8 -3.0 3.75 -1.25 1.9 -0.4 1.9 0.4 1.9 -0.7 3.15" fill="#ebcae6" fill-rule="evenodd" stroke="none"/>
      <path d="M10.45 4.6 Q13.15 11.95 10.7 6.3 9.9 4.35 9.0 4.65 L8.2 5.35 Q6.1 0.85 4.2 3.5 L3.65 3.05 Q3.3 2.5 4.5 1.95 6.35 1.05 7.5 3.05 8.45 4.65 8.7 4.1 9.6 2.2 10.45 4.6" fill="#ebcae6" fill-rule="evenodd" stroke="none"/>
      <path d="M-20.15 -2.05 Q-23.2 -0.75 -24.9 3.35 -24.35 -1.55 -20.4 -3.15 -16.9 -4.55 -14.3 -2.75 -18.1 -2.95 -20.15 -2.05" fill="#ebcae6" fill-rule="evenodd" stroke="none"/>
      <path d="M-27.75 6.3 Q-30.85 7.5 -31.45 9.9 -31.75 11.1 -31.55 11.85 -33.1 9.7 -31.15 7.7 -29.35 5.8 -27.75 6.3" fill="#ebcae6" fill-rule="evenodd" stroke="none"/>
      <path d="M12.15 -2.25 Q14.05 -3.95 16.6 -3.45 L15.05 -3.35 Q13.3 -3.05 12.15 -2.25" fill="#ebcae6" fill-rule="evenodd" stroke="none"/>
      <path d="M22.3 5.35 Q22.95 4.75 24.2 4.75 25.4 4.75 25.6 5.3 23.45 4.9 22.3 5.35" fill="#ebcae6" fill-rule="evenodd" stroke="none"/>
      <path d="M1.4 2.2 Q3.45 -0.3 5.65 0.6 3.35 1.05 1.4 2.2" fill="#846c93" fill-rule="evenodd" stroke="none"/>
      <path d="M10.3 13.95 Q13.55 10.4 11.0 3.7 12.35 5.1 12.6 7.75 12.95 11.25 10.3 13.95" fill="#846c93" fill-rule="evenodd" stroke="none"/>
      <path d="M7.05 7.65 L9.1 5.3 Q8.7 6.7 7.05 7.65" fill="#846c93" fill-rule="evenodd" stroke="none"/>
      <path d="M2.5 7.45 Q4.0 6.05 4.75 4.35 L5.2 3.15 Q5.85 6.3 2.5 7.45" fill="#846c93" fill-rule="evenodd" stroke="none"/>
      <path d="M-0.85 8.6 Q0.9 6.7 1.55 4.55 1.85 7.3 -0.85 8.6" fill="#846c93" fill-rule="evenodd" stroke="none"/>
      <path d="M-5.85 7.25 Q-3.7 6.65 -1.15 4.55 -1.3 5.25 -3.0 6.45 -4.85 7.8 -5.85 7.25" fill="#846c93" fill-rule="evenodd" stroke="none"/>
      <path d="M-9.35 9.6 Q-10.05 8.45 -8.9 6.4 -7.75 4.25 -6.05 4.85 -7.05 4.95 -8.35 6.55 -9.8 8.25 -9.35 9.6" fill="#846c93" fill-rule="evenodd" stroke="none"/>
      <path d="M-11.55 15.45 Q-13.0 13.75 -12.45 9.9 -11.9 5.85 -9.6 5.2 L-11.6 8.15 Q-12.75 11.0 -11.55 15.45" fill="#846c93" fill-rule="evenodd" stroke="none"/>
      <path d="M-10.95 2.9 Q-11.3 2.9 -11.05 2.05 -10.8 1.25 -10.4 1.55 -9.95 1.9 -10.3 2.3 L-9.9 2.05 Q-9.75 2.2 -10.2 2.55 L-10.95 2.9" fill="#9f3370" fill-rule="evenodd" stroke="none"/>
      <path d="M11.1 1.65 Q12.9 1.7 12.4 2.3 12.1 2.65 11.75 2.4 L11.85 2.75 11.4 2.4 11.1 1.65" fill="#9f3370" fill-rule="evenodd" stroke="none"/>
      <path d="M-12.45 3.3 Q-11.3 2.6 -11.15 3.15 -11.0 3.6 -12.05 3.85 -12.8 3.6 -12.45 3.3" fill="#9f3370" fill-rule="evenodd" stroke="none"/>
      <path d="M10.75 0.2 Q11.65 1.25 10.95 1.5 10.5 1.65 10.2 0.6 10.7 0.75 10.75 0.2" fill="#9f3370" fill-rule="evenodd" stroke="none"/>
    </g>
  </defs>
</svg>
